astro/public/assets/icons/ui/social-github.svg

<svg xmlns="http://www.w3.org/2000/svg" viewBox="0 0 24 24" fill="none">
  <path d="M4.0744 2.9938C4.13263 1.96371 4.37869 1.51577 5.08432 1.15606C5.84357 0.768899 7.04106 0.949072 8.45014 1.66261C9.05706 1.97009 9.11886 1.97635 10.1825 1.83998C11.5963 1.65865 13.4164 1.65929 14.7213 1.84164C15.7081 1.97954 15.7729 1.97265 16.3813 1.66453C18.3814 0.651679 19.9605 0.71795 20.5323 1.8387C20.8177 2.39812 20.8707 3.84971 20.6494 5.04695C20.5267 5.71069 20.5397 5.79356 20.8353 6.22912C22.915 9.29385 21.4165 14.2616 17.8528 16.1155C17.5801 16.2574 17.3503 16.3452 17.163 16.4167C16.5879 16.6363 16.4133 16.703 16.6247 17.7138C16.7265 18.2 16.8491 19.4088 16.8973 20.4002C16.9844 22.1922 16.9831 22.2047 16.6688 22.5703C16.241 23.0676 15.6244 23.076 15.2066 22.5902C14.9341 22.2734 14.9075 22.1238 14.9075 20.9015C14.9075 19.0952 14.7095 17.8946 14.2417 16.8658C13.6854 15.6415 14.0978 15.185 15.37 14.9114C17.1383 14.531 18.5194 13.4397 19.2892 11.8146C20.0211 10.2698 20.1314 8.13501 18.8082 6.83668C18.4319 6.3895 18.4057 5.98446 18.6744 4.76309C18.7748 4.3066 18.859 3.71768 18.8615 3.45425C18.8653 3.03823 18.8274 2.97541 18.5719 2.97541C18.4102 2.97541 17.7924 3.21062 17.1992 3.49805L16.2524 3.95695C16.1663 3.99866 16.07 4.0147 15.975 4.0038C13.5675 3.72746 11.2799 3.72319 8.86062 4.00488C8.76526 4.01598 8.66853 3.99994 8.58215 3.95802L7.63585 3.49882C7.04259 3.21087 6.42482 2.97541 6.26317 2.97541C5.88941 2.97541 5.88379 3.25135 6.22447 4.89078C6.43258 5.89203 6.57262 6.11513 5.97101 6.91572C5.06925 8.11576 4.844 9.60592 5.32757 11.1716C5.93704 13.1446 7.4295 14.4775 9.52773 14.9222C10.7926 15.1903 11.1232 15.5401 10.6402 16.9905C10.26 18.1319 10.0196 18.4261 9.46707 18.4261C8.72365 18.4261 8.25796 17.7821 8.51424 17.1082C8.62712 16.8112 8.59354 16.7795 7.89711 16.5255C5.77117 15.7504 4.14514 14.0131 3.40172 11.7223C2.82711 9.95184 3.07994 7.64739 4.00175 6.25453C4.31561 5.78028 4.32047 5.74006 4.174 4.83217C4.09113 4.31822 4.04631 3.49103 4.0744 2.9938Z" fill="#000"/>
  <path d="M3.33203 15.9454C3.02568 15.4859 2.40481 15.3617 1.94528 15.6681C1.48576 15.9744 1.36158 16.5953 1.66793 17.0548C1.8941 17.3941 2.16467 17.6728 2.39444 17.9025C2.4368 17.9449 2.47796 17.9858 2.51815 18.0257C2.71062 18.2169 2.88056 18.3857 3.05124 18.5861C3.42875 19.0292 3.80536 19.626 4.0194 20.6962C4.11474 21.1729 4.45739 21.4297 4.64725 21.5419C4.85315 21.6635 5.07812 21.7352 5.26325 21.7819C5.64196 21.8774 6.10169 21.927 6.53799 21.9559C7.01695 21.9877 7.53592 21.998 7.99999 22.0008C8.00033 22.5527 8.44791 23.0001 8.99998 23.0001C9.55227 23.0001 9.99998 22.5524 9.99998 22.0001V21.0001C9.99998 20.4478 9.55227 20.0001 8.99998 20.0001C8.90571 20.0001 8.80372 20.0004 8.69569 20.0008C8.10883 20.0026 7.34388 20.0049 6.67018 19.9603C6.34531 19.9388 6.07825 19.9083 5.88241 19.871C5.58083 18.6871 5.09362 17.8994 4.57373 17.2891C4.34391 17.0194 4.10593 16.7834 3.91236 16.5914C3.87612 16.5555 3.84144 16.5211 3.80865 16.4883C3.5853 16.265 3.4392 16.1062 3.33203 15.9454Z" fill="#000"/>
</svg>

<svg xmlns="http://www.w3.org/2000/svg" fill="none" viewBox="0 0 24 24"><path fill="#000" d="M4.074 2.994c.059-1.03.305-1.478 1.01-1.838.76-.387 1.957-.207 3.366.507.607.307.669.313 1.733.177 1.413-.181 3.233-.18 4.538.002.987.138 1.052.13 1.66-.177 2-1.013 3.58-.947 4.151.174.286.56.339 2.01.117 3.208-.122.664-.11.747.186 1.182 2.08 3.065.581 8.033-2.982 9.887a6 6 0 0 1-.69.3c-.575.22-.75.287-.538 1.298.102.486.224 1.695.272 2.686.087 1.792.086 1.805-.228 2.17-.428.498-1.045.506-1.462.02-.273-.317-.3-.466-.3-1.689 0-1.806-.197-3.006-.665-4.035-.557-1.224-.144-1.681 1.128-1.955 1.768-.38 3.15-1.471 3.92-3.096.731-1.545.841-3.68-.482-4.978-.376-.447-.402-.853-.134-2.074.1-.456.185-1.045.188-1.309.003-.416-.035-.479-.29-.479-.162 0-.78.236-1.373.523l-.947.459a.5.5 0 0 1-.277.047 30.3 30.3 0 0 0-7.114 0 .5.5 0 0 1-.279-.046l-.946-.46c-.593-.287-1.211-.523-1.373-.523-.374 0-.38.276-.039 1.916.209 1.001.349 1.224-.253 2.025-.902 1.2-1.127 2.69-.643 4.256.609 1.973 2.101 3.305 4.2 3.75 1.265.268 1.595.618 1.112 2.069-.38 1.14-.62 1.435-1.173 1.435-.743 0-1.209-.644-.953-1.318.113-.297.08-.329-.617-.582-2.126-.776-3.752-2.513-4.495-4.804-.575-1.77-.322-4.075.6-5.467.314-.475.318-.515.172-1.423a10.3 10.3 0 0 1-.1-1.838M3.332 15.945a1 1 0 0 0-1.664 1.11c.226.34.497.618.726.848l.124.123c.193.19.363.36.533.56.378.443.754 1.04.968 2.11.096.477.438.734.628.846.206.121.431.193.616.24.379.095.839.145 1.275.174.479.032.998.042 1.462.045a1 1 0 0 0 2 0v-1a1 1 0 0 0-1-1h-.304c-.587.002-1.352.004-2.026-.04a7 7 0 0 1-.788-.09c-.301-1.184-.788-1.972-1.308-2.582-.23-.27-.468-.506-.662-.698l-.103-.103c-.224-.223-.37-.382-.477-.543"/></svg>
